X: 15288
T: Girls Have You Seen George?
R: waltz
M: 3/4
K: Eminor
E2G2(3A/G/E/D|E2G2(3A/G/E/D|E2G2 G/A/B|~c4 c/B/A|~B4 B/A/G|
(3A/G/E/D D3 (3D/E/G/|[D4A4] (A/B/G)|[F4A4] Gz|~c4 (c/B/A)|B2 d<e (e/d/B/A/)|
(3A/G/E/D G2 [B,2D2G2]|(GA G2) {DE}(GA)|B2 (B/d/e) (e/d/)(B/A/)|G2 (G/A/B) (B/A/G)|
(A/G/ E3) E2|(E/4G/4E/4G/4 E3) Ez|c4 (c/B/A)|[D2G2B2] (d<e) (e/d/B/A/)|(3A/G/E/D G2 [B,2G2]|
(GA G2) (3D/E/G/A|B2e2 dc|B2 (G/A/B) (B/A/G)|(A/G/ E3) E2|(E/4G/4E/4G/4 E3) HEz||

